usr/share/icons/biglinux-icons-material/scalable/apps/easystroke.svg

<svg width="24" height="24" viewBox="0 0 24 24" fill="none" xmlns="http://www.w3.org/2000/svg">
<path fill-rule="evenodd" clip-rule="evenodd" d="M9.59604 1.11359C9.71588 1.11486 9.83043 1.0996 9.93969 1.06779C11.3755 0.973736 12.8111 0.977551 14.2467 1.07924C15.5484 1.18066 16.8085 1.46308 18.0269 1.9265C20.0525 2.76044 21.4386 4.20689 22.185 6.26585C22.6119 7.50549 22.8639 8.78021 22.9411 10.09C23.0478 11.7347 23.0096 13.3758 22.8265 15.0133C22.6895 16.1642 22.3916 17.271 21.933 18.3336C21.0824 20.1761 19.704 21.447 17.7978 22.1463C16.2531 22.6682 14.6647 22.943 13.0325 22.9706C11.1966 23.0661 9.37913 22.9287 7.57997 22.5585C4.26839 21.8208 2.22559 19.8018 1.45158 16.5017C1.12311 15.0161 0.974199 13.5124 1.00483 11.9906C0.968176 10.3724 1.14 8.77709 1.52031 7.20471C2.33171 4.11908 4.2905 2.20701 7.39669 1.46852C8.12048 1.29157 8.8536 1.17326 9.59604 1.11359Z" fill="url(#paint0_radial_4_294)"/>
<path opacity="0.15" d="M12.0011 4.59028C9.91265 4.59028 7.90971 5.41963 6.43258 6.89596C4.95545 8.37229 4.12504 10.3748 4.12392 12.4632C4.12392 14.5523 4.95383 16.5559 6.43108 18.0332C7.90833 19.5104 9.91191 20.3404 12.0011 20.3404C14.0898 20.3398 16.0929 19.5096 17.5697 18.0324C19.0465 16.5552 19.8761 14.552 19.8761 12.4632C19.875 10.3751 19.0448 8.37301 17.5682 6.89674C16.0915 5.42047 14.0891 4.59084 12.0011 4.59028ZM12.0011 8.52569C12.5183 8.52541 13.0306 8.62705 13.5085 8.8248C13.9865 9.02255 14.4208 9.31255 14.7867 9.67821C15.1525 10.0439 15.4428 10.478 15.6408 10.9559C15.8388 11.4337 15.9407 11.9459 15.9407 12.4632C15.941 12.9806 15.8393 13.4931 15.6414 13.9712C15.4435 14.4493 15.1533 14.8837 14.7874 15.2496C14.4215 15.6155 13.9871 15.9056 13.509 16.1035C13.0309 16.3014 12.5185 16.4031 12.0011 16.4028C11.4838 16.4028 10.9716 16.3009 10.4938 16.1029C10.0159 15.9049 9.58173 15.6147 9.21607 15.2488C8.85041 14.8829 8.56042 14.4486 8.36267 13.9707C8.16492 13.4927 8.06327 12.9804 8.06355 12.4632C8.06355 11.4189 8.4784 10.4174 9.21682 9.67898C9.95525 8.94056 10.9568 8.52569 12.0011 8.52569Z" fill="black"/>
<path d="M11.9989 3C10.3831 3 8.95864 3.87807 8.02316 5.17286C7.17272 6.34646 6.76239 7.89425 6.81129 9.53134C5.32941 10.3052 4.15793 11.4236 3.53499 12.7311C2.84826 14.1705 2.77598 15.8288 3.59239 17.2065C4.41094 18.5821 5.90558 19.339 7.51502 19.4772C8.98627 19.6047 10.566 19.1795 12.0011 18.3142C13.4319 19.1774 15.0116 19.6069 16.4829 19.4772C18.0923 19.339 19.5869 18.5842 20.4076 17.2065C21.224 15.8288 21.1517 14.1705 20.465 12.7311C19.8399 11.4214 18.6685 10.3031 17.1866 9.52921C17.227 7.94315 16.8188 6.41024 15.9768 5.22601C15.0477 3.91847 13.6296 3 12.0011 3H11.9989ZM11.9989 4.50102C13.0684 4.50102 14.0421 5.09632 14.7543 6.09558C15.2944 6.85672 15.5665 7.85385 15.6516 8.89351C13.2786 8.11028 10.7167 8.11103 8.3442 8.89564C8.42074 7.81558 8.695 6.80144 9.23715 6.05093C9.94514 5.07293 10.9189 4.49889 12.0011 4.49889L11.9989 4.50102ZM11.9989 9.74394C13.2321 9.74394 14.4524 10.0097 15.6175 10.4519C15.2348 12.9437 13.9698 15.0081 12.0032 16.5177C10.0658 15.0327 8.77092 12.8621 8.38459 10.4519C9.5365 9.99882 10.7612 9.75893 11.9989 9.74394ZM7.01327 11.1748C7.5084 13.5674 8.78513 15.7275 10.6425 17.3149C9.63686 17.7891 8.59082 18.0654 7.64471 17.9847C6.41158 17.8762 5.41658 17.3362 4.88293 16.439C4.35141 15.5439 4.37267 14.4617 4.88718 13.3774C5.28901 12.5376 6.06928 11.7871 7.01327 11.1748ZM16.9889 11.1769C17.9328 11.7892 18.711 12.5376 19.1128 13.3774C19.6295 14.4617 19.6486 15.5439 19.1171 16.439C18.5856 17.3362 17.5905 17.8762 16.3532 17.9847C15.4113 18.0654 14.3674 17.7891 13.3639 17.3171C15.2325 15.7397 16.5105 13.575 16.9889 11.1769Z" fill="white"/>
<defs>
<radialGradient id="paint0_radial_4_294" cx="0" cy="0" r="1" gradientUnits="userSpaceOnUse" gradientTransform="translate(12 1) rotate(90) scale(22)">
<stop stop-color="#7091E3"/>
<stop offset="1" stop-color="#5F7BC1"/>
</radialGradient>
</defs>
</svg>

<svg xmlns="http://www.w3.org/2000/svg" width="24" height="24" fill="none"><path fill="url(#a)" fill-rule="evenodd" d="M9.596 1.114c.12 0 .234-.014.344-.046a31.627 31.627 0 0 1 4.307.011c1.301.102 2.561.384 3.78.848 2.025.833 3.412 2.28 4.158 4.339.427 1.24.679 2.514.756 3.824a27.94 27.94 0 0 1-.114 4.923 11.88 11.88 0 0 1-.894 3.32c-.85 1.843-2.229 3.114-4.135 3.813a15.624 15.624 0 0 1-4.765.825 21.423 21.423 0 0 1-5.453-.413c-3.312-.737-5.354-2.756-6.128-6.056a19.047 19.047 0 0 1-.447-4.511 18.491 18.491 0 0 1 .515-4.786c.812-3.086 2.77-4.998 5.877-5.736a13.953 13.953 0 0 1 2.199-.355Z" clip-rule="evenodd"/><path fill="#000" d="M12.001 4.59a7.877 7.877 0 0 0-7.877 7.873 7.877 7.877 0 0 0 13.446 5.57 7.877 7.877 0 0 0 2.306-5.57 7.877 7.877 0 0 0-7.875-7.873Zm0 3.936a3.937 3.937 0 0 1 2.786 6.724 3.938 3.938 0 0 1-6.723-2.787A3.937 3.937 0 0 1 12 8.526Z" opacity=".15"/><path fill="#fff" d="M11.999 3c-1.616 0-3.04.878-3.976 2.173-.85 1.173-1.26 2.721-1.212 4.358-1.482.774-2.653 1.893-3.276 3.2-.687 1.44-.759 3.098.057 4.475.819 1.376 2.314 2.133 3.923 2.271 1.471.128 3.051-.297 4.486-1.163 1.43.863 3.01 1.293 4.482 1.163 1.61-.138 3.104-.893 3.925-2.27.816-1.378.744-3.037.057-4.476-.625-1.31-1.796-2.428-3.278-3.202.04-1.586-.368-3.119-1.21-4.303C15.047 3.918 13.63 3 12 3H12Zm0 1.501c1.07 0 2.043.595 2.755 1.595.54.76.813 1.758.898 2.798a11.647 11.647 0 0 0-7.308.002c.077-1.08.351-2.095.893-2.845.708-.978 1.682-1.552 2.764-1.552L12 4.5Zm0 5.243c1.233 0 2.453.266 3.618.708-.382 2.492-1.647 4.556-3.614 6.066a9.546 9.546 0 0 1-3.618-6.066 10.212 10.212 0 0 1 3.614-.708Zm-4.986 1.43a11.013 11.013 0 0 0 3.63 6.14c-1.006.475-2.052.751-2.998.67-1.233-.108-2.228-.648-2.762-1.545-.532-.895-.51-1.977.004-3.062.402-.84 1.182-1.59 2.126-2.202Zm9.976.003c.944.612 1.722 1.36 2.124 2.2.517 1.085.536 2.167.004 3.062-.531.897-1.527 1.437-2.764 1.546-.942.08-1.986-.196-2.99-.668a10.8 10.8 0 0 0 3.626-6.14Z"/><defs><radialGradient id="a" cx="0" cy="0" r="1" gradientTransform="matrix(0 22 -22 0 12 1)" gradientUnits="userSpaceOnUse"><stop stop-color="#7091E3"/><stop offset="1" stop-color="#5F7BC1"/></radialGradient></defs></svg>
